X: 190
T: 11me. Ãtude.	 Op. 25
C: Fryderyk Chopin
%%abc-version 2.0
%%abcx-abcm2ps-target-version 5.9.1 (29 Sep 2008)
%%abc-creator hum2abc beta
%%abcx-conversion-date 2021/10/03 11:24:05
%%abc-edited-by Zofia Trojan
%%abc-edited-by JÄdrzej MrÃ³z
%%abc-edited-by Leszek Kubiak
%%abcx-initial-encoding-date 2018-11-13
%%humdrum-veritas 2592961128
%%humdrum-veritas-data 1935583412
%%linebreak <none>
%%barnumbers 0
L: 1/16
M: C
N: Derived from 025-1b-LE-011.krn
P: Etudes pour le Piano
Q: "Lento." 1/4=138
%%staves {1 2}
V: 1 clef=treble
V: 2 clef=bass
K: C
[V:1] E4E2>E2E4F4 | 
[V:2] z16 | 
[V:1] E4C4!fermata!E8 | 
[V:2] z16 | 
[V:1] [E4C4G,4][E2C2G,2]>[E2C2G,2][E4C4G,4][F4C4A,4] | 
[V:2] C,4C,2>C,2C,4F,,4 | 
[V:1] [E4C4G,4]x4!fermata!E8 | 
[V:2] x4[C4A,4][C4G,4][D4^G,4] & C,,4F,,4C,,4B,,,4 | 
[V:1] (3:2:6f'c'e'a^d'c' (3:2:6=d'a^c'a=c'e (3:2:6be_bcae (3:2:6^gc=gc^fA | 
[V:2] .A,,,4[E2C2A,2]>[E2C2A,2][E4C4A,4][F4C4A,4] | 
[V:1] (3:2:6=fceA^dc (3:2:6=dA^cA=cE (3:2:6be_bcae (3:2:6^gc=gc^fA | 
[V:2] [E4C4A,4][C4A,4E,4][E8C8A,8] | 
[V:1] (3:2:6=fceA^dc (3:2:6=dA^cA=cE (3:2:6BE_BCAE (3:2:6^GC=GC^FA, | 
[V:2] .A,,,4[E,2A,,2]>[E,2A,,2][E,4A,,4][F,4A,,4] | 
[V:1] (3:2:6=FCEA,^DC (3:2:6=DA,^CA,=CE, (3:2:6B,E,_B,C,A,E, (3:2:6^G,_B,,A,E,CF, | 
[V:2] [E,4A,,4]x4E,,8 & x4A,,,12 | 
[V:1] (3:2:6EB,DFeB (3:2:6dfe'bd'f (3:2:6d'ac'fdA (3:2:6cFDA,CF, | 
[V:2] ^G,,,4[D2F,2]>[D2F,2][C4F,4]!accent![A,,4A,,,4] | 
[V:1] (3:2:6EB,DFeB (3:2:6dfe'bd'e (3:2:6d'ac'edA (3:2:6cEDA,CB, | 
[V:2] [^G,,4^G,,,4](3[D2=G,2][D2F,2][D2E,2][C4E,4]!accent![A,,4A,,,4] | 
[V:1] (3:2:6AE^GBae (3:2:6^gba'e'^g'b (3:2:6g'^d'f'bg^d (3:2:6^fBG^DFB, | 
[V:2] [B,,4B,,,4][K:clef=treble](3E2^G2^c2[B4A4^D4B,4][K:clef=bass]x4 & x4[B,4^G,4]x4[B,4B,,4] | 
[V:1] (3:2:6AE^GBae (3:2:6^gba'e'^g'b.e''4z4 | 
[V:2] .[E,4E,,4](3[G2B,2][^^F2^A,2][G2B,2].[E4^G,4E,4]z4 | 
[V:1] (3:2:6f''c''e''a'^d''c'' (3:2:6=d''a'^c''a'=c''e' (3:2:6b'e'_b'c'a'e' (3:2:6^g'c'=g'c'^f'a | 
[V:2] .A,,,4[E2C2A,2]>[E2C2A,2][E4C4A,4][F4C4A,4] | 
[V:1] (3:2:6=f'c'e'a^d'c' (3:2:6=d'a^c'a=c'e (3:2:6be_bcae (3:2:6^gc=gc^fA | 
[V:2] [E4C4A,4][C4A,4E,4][E8C8A,8] | 
[V:1] (3:2:6=f_BeG_eB (3:2:6dG_dBcG (3:2:6=BG_B_EAC (3:2:6^G_B,=GC^FB, | 
[V:2] !wedge!C,,4[E,2G,,2]>[E,2G,,2][E,4G,,4][F,4G,,4] | 
[V:1] (3:2:6FCE_B,_EC (3:2:6DG,_DB,CG, (3:2:6=B,G,C_B,^CG, (3:2:6D_B,^DG,EB, | 
[V:2] [E,4G,,4]C,4[E,8G,,8] & x4C,,12 | 
[V:1] (3:2:6AEG_Bae (3:2:6g_ba'e'g'b (3:2:6a'_e'g'Ba_e (3:2:6gBA_EG_B, | 
[V:2] .C,,4(3[E2_B,2G,2]=B,,2C,2!arpeggio![_E4_B,4G,4^C,4]!accent![^C,4^C,,4] | 
[V:1] (3:2:6ADG_Bad (3:2:6g_ba'd'g'b (3:2:6a'_d'g'ba_d (3:2:6gBA_DG_B, | 
[V:2] .[D,4D,,4](3[G2D2_B,2]^C,2D,2[G4_D4B,4_E,4][_E,4_E,,4] | 
[V:1] (3:2:6ACG_B,cA (3:2:6_BGacg_B (3:2:6c'a_bga'c' (3:2:6g'bc''a'_b'g' | 
[V:2] [=E,4=E,,4]!accent!C2>C2!accent!C4[C,4C,,4] | 
[V:1] (3:2:6d''a'c''f'^g'f' (3:2:6a'c'e'c'f'a (3:2:6^c'ad'f^gf (3:2:6adedfA | 
[V:2] [F,4F,,4]x4D2>E2F4 & x4A2>A,2-[A,8F,8] | 
[V:1] (3:2:6eBdfe'b (3:2:6d'f'e''b'd''f' (3:2:6a'f'g'baf (3:2:6gBe'gd'f | 
[V:2] [G,,4G,,,4][K:clef=treble](3B,2F2A2G4[F4B,4G,4][K:clef=bass] & x4G,4x8 | 
[V:1] (3:2:6bgc'e^d'c' (3:2:6e'g^f'e'g'c' (3:2:6^a'g'b'e'c''g' (3:2:6^c''e'^d''g'^d''e' | 
[V:2] [C,4C,,4]!arpeggio![E4G,4C,4]z4z4 | 
[V:1] (3:2:6e''b'^d''g'=d''b' (3:2:6^c''g'=c''g'b'e' (3:2:6^a'g'=a'e'^g'e' (3:2:6=g'c'^f'c'=f'g | 
[V:2] .[E,,4E,,,4][B,2G,2E,2]>[B,2G,2E,2][B,4G,4E,4][C4G,4E,4] | 
[V:1] (3:2:6e'b^d'g=d'b (3:2:6^c'g=c'gbe (3:2:6^ag=ae^ge (3:2:6=gB^fB=fB | 
[V:2] [B,4G,4E,4][G,4E,4B,,4][B,8G,8E,8] | 
[V:1] (3:2:6eB^dG=dB (3:2:6^cG=cGBE (3:2:6^AG=AE^GE (3:2:6GC^FC=F=G, | 
[V:2] .E,,,4[B,,2E,,2]>[B,,2E,,2][B,,4E,,4][C,4E,,4] | 
[V:1] (3:2:6EB,^DG,=DB, (3:2:6^CG,=CG,B,E, (3:2:6^A,G,=A,B,,^G,E, (3:2:6=G,B,,F,E,G,C, | 
[V:2] [B,,4E,,4]x4B,,,8 & x4E,,,12 | 
[V:1] (3:2:6B,^F,A,CB^F (3:2:6Acb^fac (3:2:6aegcAE (3:2:6GCA,E,G,C, | 
[V:2] .^D,,,4[C2^D,2]>[C2D,2][C4E,4][E,,4E,,,4] | 
[V:1] (3:2:6B,F,A,CBF (3:2:6AcbfaB (3:2:6aegBAE (3:2:6GB,A,E,G,F, | 
[V:2] [^D,,4^D,,,4](3[=D2^D,2][C2D,2]>[B,2D,2][B,4E,4][E,,4E,,,4] | 
[V:1] (3:2:6EB,^D^FeB (3:2:6^d^fe'b^d'f (3:2:6d'^a^c'fd^A (3:2:6^cFD^A,^C^F, | 
[V:2] .[^F,,4^F,,,4](3B,2^D2^G2x4[^F,,4^F,,,4] & x4^F,4[^F4E4^A,4F,4]x4 | 
[V:1] (3:2:6EB,^D^FeB (3:2:6^d^fe'b^d'f.b'4z4 | 
[V:2] [B,,4B,,,4](3[^D2F,2][^^C2^E,2][D2F,2].[B,4^D,4B,,4]z4 | 
[V:1] (3:2:6c''g'b'e'^a'g' (3:2:6=a'e'^g'e'=g'b (3:2:6^f'b=f'ge'b (3:2:6^d'g=d'g^c'e | 
[V:2] .E,,4[B,2G,2E,2]>[B,2G,2E,2][B,4G,4E,4][C4G,4E,4] | 
[V:1] (3:2:6=c'gbe^ag (3:2:6ae^ge=gB (3:2:6^fB=fGeB (3:2:6^dG=dG^cE | 
[V:2] [B,4G,4E,4][G,4E,4B,,4][B,8G,8E,8] | 
[V:1] (3:2:6cGBF^AG (3:2:6=AD_AFGB, (3:2:6^FD=FG,EB, (3:2:6_EF,DG,^CF, | 
[V:2] G,,,4B,,2>B,,2B,,4C,4 & x4D,,12 | 
[V:1] (3:2:6=CG,B,F,_B,G, (3:2:6A,D,_A,F,G,_B,, (3:2:6^F,=F,G,B,,^G,F, (3:2:6=A,D,^A,=G,B,F, | 
[V:2] B,,4x4D,,8 & D,,4G,,,12 | 
[V:1] (3:2:6EB,DFeB (3:2:6dfe'bd'f (3:2:6e'_bd'fe_B (3:2:6dFE_B,DF, | 
[V:2] .G,,,4(3!accent![B,2D,2]^F,,2G,,2[_B,4D,4_A,,4]^G,,,4 | 
[V:1] (3:2:6EA,DFeA (3:2:6dfe'ad'f (3:2:6e'^gd'fe^G (3:2:6dFE^G,DF, | 
[V:2] .A,,,4(3[D2F,2]^G,,2A,,2[D4^G,4F,4_B,,4]^A,,,4 | 
[V:1] (3:2:6EG,DF,GE (3:2:6FDeGdF (3:2:6gefde'g (3:2:6d'fg'e'f'd' | 
[V:2] .B,,,4!accent!G,2>G,2!accent!G,4[G,,4G,,,4] | 
[V:1] (3:2:6a'e'g'c'e''g' (3:2:6d''e'c''^g'b'e' (3:2:6_b'f'_a'_d'_g'd' (3:2:6f'_a_e'a_d'f | 
[V:2] [C,4C,,4](3E,2C2^G2!wedge!F,,4(3[_A,2F,2]_D2_A2 | 
[V:1] (3:2:6_d'^fc'egc (3:2:6_aefcge (3:2:6=aBf=fgB (3:2:6bfe'gd'f | 
[V:2] .G,,4(3[C2G,2]E2G2.G,,4[G4F4D4G,4] | 
[V:1] (3:2:6d'gc'eae (3:2:6gcfceG (3:2:6aegcfc (3:2:6eGaegc | 
[V:2] !arpeggio![E4G,4C,4]z4z8[K:clef=treble] | 
[V:1] [g4e4][g2e2G2]>[g2e2G2][g4e4G4][a4e4A4] | 
[V:2] (3:2:6AEG^CFC (3:2:6E_B,DB,CG,[K:clef=bass] (3:2:6=CG,_B,E,A,E, (3:2:6G,^C,F,C,E,_B,, | 
[V:1] [g4e4G4][e4^c4G4][g8e8G8] | 
[V:2] (3:2:6D,_B,,^C,G,,=C,G,, (3:2:6_B,,E,,A,,E,,G,,^C,, (3:2:6F,,C,,E,,_B,,,D,,B,,, (3:2:6C,,G,,,=C,,G,,,_B,,,E,,,[K:clef=treble] | 
[V:1] [_b4g4_B4][b2g2B2]>[b2g2B2][b4g4B4][c'4g4c4] | 
[V:2] (3:2:6!accent!cG_BEAE (3:2:6G^CFCE_B,[K:clef=bass] (3:2:6D_B,^CG,=CG, (3:2:6B,E,A,E,G,^C, | 
[V:1] [_b4g4_B4][g4e4B4][b8g8B8] | 
[V:2] (3:2:6F,^C,E,_B,,D,B,, (3:2:6^C,G,,=C,G,,B,,E,, (3:2:6A,,E,,G,,^C,,F,,C,, (3:2:6E,,_B,,,D,,B,,,C,,G,,, | 
[V:1] (3:2:6c''_e'_b'_d'_a'e' (3:2:6g'd'f'd'e'g (3:2:6f'c'e'_ad'a (3:2:6c'_e_beac | 
[V:2] .[_E,,4_E,,,4]x4E4_A3C & x4_E2>E2_E,4x4 | 
[V:1] (3:2:6c'_e_b_dae (3:2:6_bd_d'egd (3:2:6beacge (3:2:6acbeac | 
[V:2] _E4_B,2>E2x4z4 & _E,8-[C4E,4_A,,4]z4 | 
[V:1] (3:2:6^g'b^f'ae'b (3:2:6^d'a^c'ab^f (3:2:6e'^g^d'ec'g (3:2:6beaegB | 
[V:2] .[B,,,4B,,4]x4B,4E2z^G, & x4B,2>B,2B,,4x4 | 
[V:1] (3:2:6^g^d^fA^ed (3:2:6fAaB^dA (3:2:6fB=f^GeB (3:2:6dG=dB^cG | 
[V:2] B,4(3F,2^G,2A,2x4z4 & B,,8!arpeggio![G,4B,,4E,,4]x4 | 
[V:1] (3:2:6^c^GBDcG (3:2:6Bd^c'^gbd' (3:2:6^c''^g'b'd'c'g (3:2:6bdcGBD | 
[V:2] [E,4E,,4](3[B,,2B,,,2][^G,,2^G,,,2][B,,2B,,,2] [E,,2E,,,2]z[E,2E,,2]<[^F,2^F,,2][E,E,,] | 
[V:1] (3:2:6d=G=cCfc (3:2:6_eG_aegc (3:2:6c'gb_e_bg (3:2:6ae_aegc | 
[V:2] [_E,4_E,,4][C,4C,,4][E,4E,,4](3[F,2F,,2][^F,2^F,,2][G,2G,,2] | 
[V:1] (3:2:6fc_e_Gfc (3:2:6e_gf'c'_e'_g' (3:2:6f''c''_e''g'f'c' (3:2:6e'gfc^d^F | 
[V:2] [_A,4_A,,4](3[_E,2_E,,2][C,2C,,2][E,2E,,2] .[_A,,2_A,,,2] z [A,2A,,2]<[_B,2_B,,2][A,A,,] | 
[V:1] (3:2:6^fBeEae (3:2:6gBc'gbe (3:2:6e'b^d'g=d'b (3:2:6^c'g=c'gbe | 
[V:2] [G,4G,,4][E,4E,,4][G,4G,,4](3[A,2A,,2][^A,2^A,,2][B,2B,,2] | 
[V:1] (3:2:6_bea_B_ae (3:2:6gB=aegB (3:2:6gc^fA=fc (3:2:6^fAg=BfA | 
[V:2] !accent![C4C,4]!arpeggio![E,4G,,4C,,4]!arpeggio![A,4C,4F,,4]!arpeggio![^D,4B,,,4] | 
[V:1] (3:2:6^f=B=fGeB (3:2:6eGfAeG (3:2:6eA^cFdA (3:2:6dEBA=cE | 
[V:2] !accent!!arpeggio![G,4B,,4E,,4]!accent!!arpeggio![^C4E,4A,,4]!accent![D4A,4D,4]!accent!!arpeggio![=C4E,4A,,4] | 
[V:1] (3:2:6cABFcA (3:2:6Bfc'abf' (3:2:6c''a'b'f'c'a (3:2:6bfcABF | 
[V:2] .[D,4D,,4][F4F,4][^A,2^A,,2]z[CC,][B,4B,,4] | 
[V:1] (3:2:6B^FACBF (3:2:6Acb^fac' (3:2:6b'^f'a'c'bf (3:2:6acBFAC | 
[V:2] .[^D,4^D,,4][^F4^F,4][A,2A,,2]z[=D=D,][C4C,4] | 
[V:1] (3:2:6AE^GBae (3:2:6^gba'e'^g'b (3:2:6g'd'f'bg'd' (3:2:6fBGDFB, | 
[V:2] .E,,4B,2>E2D8 & E,16 | 
[V:1] (3:2:6^F^CE^G^f^c (3:2:6e^g^f'^c'e'g (3:2:6e'bd'feB (3:2:6dFEB,D^F, | 
[V:2] .[E,,4E,,,4]G,2>^C2B,8 | 
[V:1] (3:2:6^C^G,B,F,EB, (3:2:6D^G,=GDFB, (3:2:6AF^GD^cG (3:2:6BFeBd^G | 
[V:2] {/E,,,}E,,16- & x4!accent!F,2>F,2!accent!F,4!accent!=G,4 | 
[V:1] (3:2:6gdfBaf (3:2:6^gdc'gbf (3:2:6e'bd'^g=g'd' (3:2:6f'ba'f'^g'd' | 
[V:2] !accent!F,4!accent!D,4!accent!F,8 & E,,16 | 
[V:1] (3:2:6f''b'e''^g'^d''b' (3:2:6=d''g'^c''g'=c''f' (3:2:6b'f'_b'd'a'f' (3:2:6^g'_b=g'd'^f'^g | 
[V:2] (3:2:6E,,B,,^G,,D,G,,D, (3:2:6B,,F,B,,F,D,^G, (3:2:6D,G,F,B,F,B, (3:2:6G,DG,DB,=F[K:clef=treble] | 
[V:1] (3:2:6=f'be'^g^d'b (3:2:6d'g^c'g=c'f- !wedge![b2f2] z2z4 | 
[V:2] (3:2:6B,FD^GDG (3:2:6FBFBGd- [^g2d2] z2z4[K:clef=bass] | 
[V:1] (3:2:6b'f'^a'd'=a'f' (3:2:6^g'd'=g'd'^f'b (3:2:6=f'be'^g^d'b (3:2:6=d'g^c'g=c'f | 
[V:2] (3:2:6B,,,F,,D,,^G,,D,,G,, (3:2:6F,,B,,F,,B,,^G,,D, (3:2:6G,,D,B,,F,B,,F, (3:2:6D,^G,D,G,F,B, | 
[V:1] (3:2:6bf^ad=af (3:2:6^gd=gd^fB !wedge![=f2d2^G2] z2z4 | 
[V:2] (3:2:6F,B,^G,DG,D[K:clef=treble] (3:2:6B,FB,FD^G [B2F2D2] z2z4[K:clef=bass] | 
[V:1] (3fde ^G2z4(3fde G2z4 | 
[V:2] (3FDE B,2z4(3FDE B,2z4 | 
[V:1] (3:2:6fde^Gfd (3:2:6eGfdeG (3:2:6fdeGfd (3:2:6eGfdeG | 
[V:2] (3:2:6FDEB,FD (3:2:6EB,FDEB, (3:2:6FDEB,FD (3:2:6EB,FDEB, | 
[V:1] (3:2:6fde^Gfd (3:2:6eGfdeG (3:2:6fdeGfd (3:2:6eGfdeG | 
[V:2] (3:2:6!accent!FE^D=D^C=C (3:2:6B,^A,=A,^G,=G,^F, (3:2:6=F,E,^D,=D,^C,=C, (3:2:6B,,^A,,=A,,^G,,=G,,^F,, | 
[V:1] (3:2:6fde^Gfd (3:2:6e^gf'd'e'^g' (3:2:6f''d''e''g'f''d'' (3:2:6e''g'f''d''e''g' | 
[V:2] (3:2:6=F,,E,,^D,,E,,F,,E,, (3:2:6D,,E,,F,,E,,D,,E,, (3:2:6F,,E,,D,,E,,F,,E,, (3:2:6D,,E,,F,,E,,D,,E,, | 
[V:1] (3:2:6f''c''e''a'^d''c'' (3:2:6=d''a'^c''a'=c''e' (3:2:6b'e'_b'c'a'e' (3:2:6^g'c'=g'c'^f'a | 
[V:2] .A,,,4[E2C2A,2]>[E2C2A,2][E4C4A,4][F4C4A,4] | 
[V:1] (3:2:6=f'c'e'a^d'c' (3:2:6=d'a^c'a=c'e (3:2:6be_bcae (3:2:6^gc=gc^fA | 
[V:2] [E4A,4][C4A,4E,4][E8C8A,8] | 
[V:1] (3:2:6=fceA^dc (3:2:6=dA^cA=cE (3:2:6BE_BCAE (3:2:6^GC=GC^FA, | 
[V:2] .A,,,4[E,2A,,2]>[E,2A,,2][E,4A,,4][F,4A,,4] | 
[V:1] (3:2:6=FCEA,^DC (3:2:6=DA,^CA,=CG, (3:2:6B,E,_B,C,A,E, (3:2:6^G,C,A,E,CF, | 
[V:2] [E,4A,,4]x4E,,8 & x4A,,,12 | 
[V:1] (3:2:6EB,DFeB (3:2:6dfe'bd'f (3:2:6d'ac'fdA (3:2:6cFDA,CF, | 
[V:2] ^G,,,4[D2F,2]>[D2F,2][C4F,4]!accent![A,,4A,,,4] | 
[V:1] (3:2:6EB,DFeB (3:2:6dfe'bd'e (3:2:6d'ac'edA (3:2:6cEDA,CB, | 
[V:2] [^G,,4^G,,,4](3[D2=G,2][D2F,2][D2E,2][C4E,4]!accent![A,,4A,,,4] | 
[V:1] (3:2:6AE^GBae (3:2:6^gba'e'^g'b (3:2:6g'^d'f'bg^d (3:2:6^fBG^DFB, | 
[V:2] [B,,4B,,,4][K:clef=treble](3E2^G2^c2[B4A4^D4B,4][K:clef=bass]x4 & x4[B,4^G,4]x4[B,4B,,4] | 
[V:1] (3:2:6AE^GBae (3:2:6^gba'e'^g'be''4z4 | 
[V:2] .[E,4E,,4](3[G2B,2][^^F2^A,2][G2B,2].[E4^G,4E,4]z4 | 
[V:1] (3:2:6f''c''e''a'^d''c'' (3:2:6=d''a'^c''a'=c''e' (3:2:6b'e'_b'c'a'e' (3:2:6^g'c'=g'c'^f'a | 
[V:2] !wedge!A,,,4[E2C2A,2]>[E2C2A,2][E4C4A,4][F4C4A,4] | 
[V:1] (3:2:6=f'c'e'a^d'c' (3:2:6=d'a^c'a=c'e (3:2:6be_bcae (3:2:6^gc=gc^fA | 
[V:2] [E4C4A,4][C4A,4E,4][E8C8A,8] | 
[V:1] (3:2:6=fceA^dc (3:2:6=dA^cA=cE (3:2:6BE_BCAE (3:2:6^GC=GC^FA, | 
[V:2] .G,,,4[E,2G,,2]>[E,2G,,2]E,4F,4 & x4x4G,,8- | 
[V:1] (3:2:6=FCEA,^DC (3:2:6=DA,^CA,=CE, (3:2:6B,F,A,C,^G,F, (3:2:6A,C,B,E,CC, | 
[V:2] E,4C,4x8 & G,,8F,,4E,,4 | 
[V:1] (3:2:6CF,B,B,cF (3:2:6BBc'fbb (3:2:6c''^f'b'bc'^f (3:2:6bBc^FBB, | 
[V:2] !wedge!D,,4(3[F2A,2]^C,2D,2!arpeggio![^F4A,4^D,4]^D,,4 | 
[V:1] (3:2:6dG^ccd'g (3:2:6^c'c'd''g'^c''c' (3:2:6_e''_b'd''d'_e'_b (3:2:6d'd_e_BdD | 
[V:2] .E,,4(3[G2_B,2]^D,2E,2!arpeggio![_B4^D4_B,4F,4][F,4F,,4] | 
[V:1] (3:2:6eA^d^DeA (3:2:6dde'a^d'd' (3:2:6e''a'^d''d'e'a (3:2:6d'de'ad'd' | 
[V:2] .[F,,4F,,,4][F2F,2]>[F2F,2][F4F,4][G4G,4] | 
[V:1] (3:2:6e''a'^d''^d'e'a (3:2:6d'^de'ad'd' (3:2:6e''a'd''d'e''a' (3:2:6d''d'e''a'd''d' | 
[V:2] [F4F,4][C4C,4][F8F,8] | 
[V:1] (3:2:6e''b'^d''a'e''b' (3:2:6d''a'e''b'd''a' (3:2:6e''b'd''a'e''b' (3:2:6d''a'e''b'd''a' | 
[V:2] (3:2:6F,,B,,A,,^D,A,,D, (3:2:6B,,F,B,,F,D,A, (3:2:6D,A,F,B,F,B, (3:2:6A,^DA,DB,F[K:clef=treble] | 
[V:1] (3:2:6e''b'^d''a'e''b' (3:2:6d''a'e''b'd''a' (3:2:6e''b'd''a'e''b' (3:2:6d''a'e''b'd''a' | 
[V:2] (3:2:6B,F^DADA (3:2:6FBFBA^d (3:2:6AdBfBf (3:2:6dadafb | 
[V:1] (3:2:6f''c''e''a'd''a' (3:2:6c''e'b'e'a'c' (3:2:6f'c'e'ad'a (3:2:6c'ebeac | 
[V:2] .[e2c2A2E2] (3z !accent!d'a (3:2:6c'ebeac (3:2:6fceAdA (3:2:6cEBEAC[K:clef=bass] | 
[V:1] (3:2:6fceAdA (3:2:6cEBEAC!accent![B4A4E4B,4]!accent![e4B4^G4E4D4] | 
[V:2] (3:2:6FCEA,DA, (3:2:6CE,B,E,A,C,[E,4E,,4][E,,4E,,,4] | 
[V:1] (3:2:6a'e'^g'c'=g'e' (3:2:6^f'c'=f'c'e'a (3:2:6^d'c'=d'a^c'a (3:2:6c'ebe_b^c [|] 
[V:2] !accent!A,,,E,,C,E,, !accent!A,,,E,,C,E,, !accent!A,,,E,,C,E,, !accent!B,,,E,,C,E,, [|] 
[V:1] (3:2:6ae^g=c=ge (3:2:6^fc=fceA (3:2:6^dc=dA^cA (3:2:6=cE=BE_BC | 
[V:2] !accent!A,,,E,,C,E,, !accent!E,,,E,,C,E,, !accent!A,,,E,,C,E,, C,E,,C,E,, | 
[V:1] (3:2:6AE^GC=GE (3:2:6^FC=FCEA, (3:2:6^DC=DA,^CA, (3:2:6=CE,B,E,_B,C, [|] 
[V:2] A,,,E,,C,E,, A,,,E,,C,E,, A,,,E,,C,E,, A,,,E,,C,E,, [|] 
[V:1] (3:2:6A,E,^G,C,=G,E, (3:2:6^F,C,=F,C,E,A,, (3:2:6^D,C,=D,A,,^C,A,, (3:2:6=C,E,,B,,E,,_B,,E,, | 
[V:2] (3.A,,2.^G,,2.=G,,2 (3.^F,,2.=F,,2.E,,2 (3.^D,,2.=D,,2.^C,,2 (3.C,,2.B,,,2._B,,,2 | 
[V:1] .A,,4[A2E2C2A,2]>[A2E2C2A,2][A4E4C4A,4][A4F4D4A,4] [|] 
[V:2] .A,,,4[A,,2E,,2A,,,2]>[A,,2E,,2A,,,2][A,,4E,,4A,,,4][A,,4D,,4A,,,4] [|] 
[V:1] !accent![A8E8C8A,8]!accent![A8D8B,8A,8] | 
[V:2] [A,,8E,,8A,,,8][A,,8F,,8A,,,8] | 
[V:1] !accent![A16E16C16A,16]A,,2B,,2C,2D,2E,2^F,2^G,2A,2B,2C2D2E2^F2^G2A2B2c2d2e2^f2^g2a2b2c'2d'2e'2^f'2^g'2 | 
[V:2] [A,,16E,,16A,,,16]A,,,2B,,,2C,,2D,,2E,,2^F,,2^G,,2A,,2B,,2C,2D,2E,2^F,2^G,2A,2B,2C2[K:clef=treble]D2E2^F2^G2A2B2c2d2e2^f2^g2 | 
[V:1] .a'4z4z8 |]  
[V:2] .a4z4z8 |]
